svg/image_lock_outline.svg

<svg xmlns="http://www.w3.org/2000/svg" viewBox="0 0 24 24"><path d="M21.8 16v-1.5c0-1.4-1.4-2.5-2.8-2.5s-2.8 1.1-2.8 2.5V16c-.6 0-1.2.6-1.2 1.2v3.5c0 .7.6 1.3 1.2 1.3h5.5c.7 0 1.3-.6 1.3-1.2v-3.5c0-.7-.6-1.3-1.2-1.3m-1.3 0h-3v-1.5c0-.8.7-1.3 1.5-1.3s1.5.5 1.5 1.3zM5 3c-1.1 0-2 .9-2 2v14a2 2 0 0 0 2 2h8.03c-.03-.1-.03-.2-.03-.3V19H5V5h14v5c.69 0 1.37.16 2 .42V5a2 2 0 0 0-2-2zm8.96 9.29-2.75 3.54-1.96-2.36L6.5 17H13c.08-.86.46-1.54.96-2.04.07-.07.17-.11.24-.17v-.29c0-.55.1-1.06.27-1.53z"/></svg>

<svg xmlns="http://www.w3.org/2000/svg" id="mdi-image-lock-outline" viewBox="0 0 24 24"><path d="M21.8 16V14.5C21.8 13.1 20.4 12 19 12S16.2 13.1 16.2 14.5V16C15.6 16 15 16.6 15 17.2V20.7C15 21.4 15.6 22 16.2 22H21.7C22.4 22 23 21.4 23 20.8V17.3C23 16.6 22.4 16 21.8 16M20.5 16H17.5V14.5C17.5 13.7 18.2 13.2 19 13.2S20.5 13.7 20.5 14.5V16M5 3C3.9 3 3 3.9 3 5V19C3 20.11 3.9 21 5 21H13.03C13 20.9 13 20.8 13 20.7V19H5V5H19V10C19.69 10 20.37 10.16 21 10.42V5C21 3.9 20.11 3 19 3H5M13.96 12.29L11.21 15.83L9.25 13.47L6.5 17H13C13.08 16.14 13.46 15.46 13.96 14.96C14.03 14.89 14.13 14.85 14.2 14.79V14.5C14.2 13.95 14.3 13.44 14.47 12.97L13.96 12.29Z" /></svg>
